packages/ui/src/assets/mini-logo.svg

<svg width="52" height="52" viewBox="0 0 52 52" fill="none" xmlns="http://www.w3.org/2000/svg">
<mask id="mask0_18:26" style="mask-type:alpha" maskUnits="userSpaceOnUse" x="0" y="0" width="52" height="52">
<rect width="52" height="52" rx="4" fill="black"/>
</mask>
<g mask="url(#mask0_18:26)">
<rect width="52" height="52" rx="4" fill="#F8971E"/>
<path d="M31.4231 13.9728C31.307 15.0914 30.6748 16.1339 30.1159 17.0525L29.6281 17.8547C29.5974 17.5976 29.5665 17.3405 29.5382 17.0836C29.4151 15.9268 29.3274 14.6011 29.8579 13.492C30.0543 13.0802 30.419 12.7042 30.7766 12.7042C30.8169 12.7042 30.8571 12.709 30.8973 12.7208C31.3118 12.8255 31.4774 13.4443 31.4231 13.9728ZM96.2885 -1.93351C95.5899 -3.34968 94.309 -4.5064 92.7815 -4.8777C91.465 -5.19901 89.9897 -4.88014 88.9716 -4.0042C88.7348 -3.80189 88.7869 -3.43297 89.0449 -3.25685C90.3592 -2.36431 90.802 -0.260291 90.2502 1.27962C89.6321 3.01472 87.6053 4.55465 86.3171 4.89501C83.8402 5.55191 80.2385 6.01366 76.168 6.34211C75.5499 6.33023 74.8822 6.3159 74.1789 6.29927C73.2223 6.27783 72.2111 6.25644 71.1858 6.23739C72.2869 1.29153 73.2318 -2.79273 73.4377 -3.4425C73.639 -4.08275 73.1441 -4.73013 72.4764 -4.68729C70.241 -4.53973 68.2708 -4.36359 66.0284 -3.58054C65.8887 -2.85936 65.2494 1.20347 64.4751 6.16599C63.7054 6.16842 62.9785 6.17787 62.3035 6.19456C63.3999 1.26774 64.3424 -2.79509 64.5461 -3.44248C64.7473 -4.08273 64.2524 -4.73011 63.5847 -4.68728C61.3493 -4.53971 59.3815 -4.36358 57.1368 -3.58052C56.9898 -2.82842 56.3031 1.55097 55.4862 6.79197C33.8242 10.1574 34.2741 26.1375 34.5038 34.1156C34.5203 34.7011 34.5346 35.2484 34.5416 35.7531C33.2014 32.0615 31.8706 28.2652 30.8878 24.3952C31.5392 23.3979 32.3561 22.0984 33.0688 20.7084C34.9915 16.9622 35.6404 13.3516 34.9418 10.267C34.6293 8.8912 34.0516 7.9487 33.2203 7.46316C32.3206 6.93716 31.1034 6.97047 30.0449 7.54884C29.2422 7.98678 28.5412 8.6937 27.8404 9.77422C25.3942 13.5372 25.1456 18.0094 25.3658 21.0987C25.4368 22.0984 25.5671 23.1361 25.7613 24.262C24.6885 26.0875 23.552 29.2268 22.4532 32.2639C21.6528 34.4774 20.8336 36.7409 20.0332 38.5236C21.3947 31.1142 22.098 19.6279 21.5558 12.471C21.3521 9.7624 20.9473 6.95143 19.3772 4.74983C17.3242 1.86515 13.2466 0.477544 9.68283 1.44625C6.29432 2.36973 3.4361 5.2806 2.4013 8.86501C1.96558 10.3764 1.88277 11.8711 2.16221 13.1849C2.48666 14.7058 3.32483 16.0482 4.46142 16.8646C5.67627 17.7405 7.32431 18.1284 9.3561 18.0141C11.0278 17.9238 12.2899 17.5167 13.2087 16.7718C14.3004 15.8911 15.0866 14.2845 14.4756 12.9231L14.4163 12.7922L14.279 12.7541C14.0399 12.6875 13.841 12.4852 13.7391 12.1996C13.6183 11.8664 13.6563 11.4855 13.8338 11.2261C14.1843 10.7167 14.9965 10.5335 15.6429 10.8143C16.242 11.0761 16.7275 11.6712 16.9785 12.4495C17.2152 13.1896 17.2319 14.0014 17.2271 14.7701C17.1821 21.9628 15.1197 34.5916 13.2205 41.8724L12.4604 44.7951C12.0105 46.5207 12.4936 48.301 13.751 49.5577C14.6935 50.4979 15.9247 51 17.201 51C17.6321 51 18.0701 50.9429 18.5011 50.8263L18.6076 50.7977C20.3339 50.3313 21.6718 48.9626 22.098 47.2252C22.2424 46.635 22.4059 45.947 22.5834 45.1902C23.6111 40.856 25.2852 33.7776 27.1394 30.2145C27.2932 30.781 27.4519 31.3498 27.6082 31.9164L27.7669 32.4875C28.3542 34.6154 28.9604 36.8836 29.3606 39.1352C29.8104 41.6867 32.0955 43.4503 34.6931 43.2409C34.8826 43.2242 35.0745 43.2123 35.2663 43.2005C37.7361 43.06 39.718 41.0702 39.8766 38.5759C39.905 38.157 39.8931 37.5263 39.8815 36.7265C39.8034 32.1425 39.6447 22.6054 45.4059 16.7146C47.7432 14.3249 50.8428 12.8065 54.648 12.1662C53.637 18.6568 52.6329 25.0854 52.3038 26.9633C52.093 28.17 51.887 29.4005 52.0457 30.6168C52.2043 31.833 52.7868 33.0517 53.8288 33.6871C55.2803 34.5749 57.267 34.0727 58.515 32.9113C59.6136 31.8854 60.2412 30.4645 60.6674 29.0078C60.7526 28.7198 60.5608 28.4367 60.2696 28.3723C59.4763 28.1986 58.6997 27.6084 58.4889 26.8658C58.2261 25.9447 58.3894 24.9616 58.56 24.0191C59.0501 21.3059 60.0423 16.5551 61.0819 11.7568C61.7993 11.7331 62.6637 11.7069 63.6155 11.6807C62.5783 18.3331 61.5318 25.0402 61.1954 26.9633C60.9824 28.17 60.7764 29.4005 60.9373 30.6168C61.096 31.833 61.6761 33.0517 62.718 33.6871C64.172 34.5749 66.1588 34.0727 67.4066 32.9113C68.5054 31.8854 69.1305 30.4645 69.5592 29.0078C69.642 28.7198 69.4526 28.4367 69.159 28.3723C68.3681 28.1986 67.5913 27.6084 67.3806 26.8658C67.1177 25.9447 67.2812 24.9616 67.4492 24.0191C67.9465 21.2702 68.9601 16.4337 70.0137 11.5711C77.3758 11.6616 86.6274 11.9829 91.5977 9.8337C93.6317 8.95309 96.3999 5.73996 96.8877 2.6958C97.1363 1.13445 96.987 -0.517357 96.2885 -1.93351Z" fill="black"/>
</g>
</svg>

<svg width="52" height="52" fill="none" xmlns="http://www.w3.org/2000/svg"><mask id="a" style="mask-type:alpha" maskUnits="userSpaceOnUse" x="0" y="0" width="52" height="52"><rect width="52" height="52" rx="4" fill="#000"/></mask><g mask="url(#a)"><rect width="52" height="52" rx="4" fill="#F8971E"/><path d="M31.423 13.973c-.116 1.118-.748 2.16-1.307 3.08l-.488.802-.09-.771c-.123-1.157-.21-2.483.32-3.592.196-.412.561-.788.919-.788.04 0 .08.005.12.017.415.104.58.723.526 1.252ZM96.288-1.934c-.698-1.416-1.979-2.572-3.507-2.944-1.316-.321-2.791-.002-3.81.874-.236.202-.184.571.074.747 1.314.893 1.757 2.997 1.205 4.537-.618 1.735-2.645 3.275-3.933 3.615-2.477.657-6.078 1.119-10.149 1.447-.618-.012-1.286-.026-1.99-.043a783.99 783.99 0 0 0-2.992-.062c1.1-4.945 2.046-9.03 2.252-9.68.201-.64-.294-1.287-.962-1.244-2.235.147-4.205.323-6.448 1.106-.14.722-.779 4.784-1.553 9.747-.77.002-1.496.012-2.171.029 1.096-4.927 2.038-8.99 2.242-9.637.201-.64-.294-1.288-.961-1.245-2.236.147-4.203.323-6.448 1.106-.147.753-.834 5.132-1.65 10.373-21.663 3.365-21.213 19.346-20.983 27.324.016.585.03 1.132.038 1.637-1.34-3.691-2.671-7.488-3.654-11.358.651-.997 1.468-2.297 2.18-3.687 1.924-3.746 2.572-7.356 1.874-10.441-.313-1.376-.89-2.318-1.722-2.804-.9-.526-2.117-.493-3.175.086-.803.438-1.504 1.145-2.205 2.225-2.446 3.763-2.694 8.235-2.474 11.325.07 1 .201 2.037.395 3.163-1.072 1.825-2.209 4.965-3.308 8.002-.8 2.213-1.62 4.477-2.42 6.26 1.362-7.41 2.065-18.896 1.523-26.053-.204-2.709-.609-5.52-2.179-7.721-2.053-2.885-6.13-4.272-9.694-3.304C6.294 2.37 3.436 5.281 2.4 8.865c-.435 1.511-.518 3.006-.239 4.32.325 1.52 1.163 2.863 2.3 3.68 1.214.876 2.862 1.263 4.894 1.15 1.672-.091 2.934-.498 3.853-1.243 1.091-.88 1.878-2.487 1.267-3.849l-.06-.13-.137-.039c-.24-.066-.438-.269-.54-.554-.12-.334-.083-.714.095-.974.35-.51 1.162-.693 1.809-.412.599.262 1.084.857 1.335 1.636.237.74.254 1.551.25 2.32-.046 7.193-2.108 19.822-4.008 27.102l-.76 2.923a4.916 4.916 0 0 0 1.291 4.763 4.865 4.865 0 0 0 4.75 1.268l.107-.028a4.914 4.914 0 0 0 3.49-3.573c.144-.59.308-1.278.485-2.035 1.028-4.334 2.702-11.412 4.556-14.975.154.566.313 1.135.47 1.701l.158.571c.587 2.128 1.193 4.397 1.594 6.648a4.972 4.972 0 0 0 5.332 4.106c.19-.017.382-.029.573-.04 2.47-.141 4.452-2.13 4.61-4.625.029-.419.017-1.05.006-1.85-.079-4.584-.237-14.12 5.524-20.011 2.337-2.39 5.437-3.909 9.242-4.549-1.011 6.49-2.015 12.92-2.344 14.797-.211 1.207-.417 2.438-.258 3.654.158 1.216.74 2.435 1.783 3.07 1.451.888 3.438.386 4.686-.776 1.099-1.026 1.726-2.447 2.152-3.903.086-.288-.106-.571-.397-.636-.794-.173-1.57-.764-1.781-1.506-.263-.921-.1-1.904.071-2.847.49-2.713 1.482-7.464 2.522-12.262.717-.024 1.582-.05 2.533-.076-1.037 6.652-2.083 13.36-2.42 15.282-.213 1.207-.419 2.438-.258 3.654.159 1.216.74 2.435 1.781 3.07 1.454.888 3.44.386 4.689-.776 1.098-1.026 1.724-2.447 2.152-3.903.083-.288-.106-.571-.4-.636-.79-.173-1.568-.764-1.778-1.506-.263-.921-.1-1.904.068-2.847.498-2.749 1.511-7.585 2.565-12.448 7.362.09 16.613.412 21.584-1.737 2.034-.88 4.802-4.094 5.29-7.138.248-1.562.099-3.213-.6-4.63Z" fill="#000"/></g></svg>
